X:8
T:No.108 untitled reel
M:4/4
L:1/8
C:reel
K:D
ed||ceAe cAec|BdGd BGdG|
ceAB cBce|[1dBgB Aaed:|[2dBgB BAAB||
cBcd efge|dcdf edcB|
Aaab agfa|gedf e2fg|
abag fage|dcdf edcB|
Aa^ga e=gfa|gedB Aaed:|
(3cBA eA ceAc|BGdG BdGd|
[1cAeA ceAc|dBgB AaeB:|
[2cBcd efga|gedB A4||
